public/logos/ibotta.svg

<?xml version="1.0" encoding="utf-8"?>
<svg xmlns="http://www.w3.org/2000/svg" fill="none" height="100%" overflow="visible" preserveAspectRatio="none" style="display: block;" viewBox="0 0 64.4576 18" width="100%">
<g id="Ibotta">
<path d="M0.0637207 5.71486H4.1421L3.82348 17.5409H0.148687L0.0637207 5.71486Z" fill="var(--fill-0, #9FA3AE)" id="Vector"/>
<path d="M10.281 0.0522399L10.196 5.81928C11.2156 5.48557 12.1502 5.32914 13.0211 5.32914C14.1363 5.32914 15.1665 5.66285 16.1012 6.299C17.7686 7.45658 18.5864 9.15645 18.5864 11.409C18.5864 13.4843 17.8642 15.1112 16.441 16.2896C15.1878 17.3325 13.6584 17.8644 11.8422 17.8644C10.3447 17.8644 8.91089 17.5098 7.54081 16.7798C7.14784 16.5608 6.76549 16.3209 6.39376 16.0185C6.55307 15.4136 6.62742 14.6732 6.62742 13.7868L6.47873 2.81583C6.47873 2.16926 6.40438 1.46011 6.27693 0.677959L10.281 0.0522399ZM10.111 9.14602L10.1429 14.2039C10.7164 14.5481 11.3324 14.7358 11.9803 14.7358C13.0211 14.7358 13.8496 14.3395 14.4549 13.5365C14.8479 12.9942 15.0603 12.3372 15.0603 11.555C15.0603 10.5852 14.7523 9.84474 14.1363 9.34417C13.5734 8.87488 12.9043 8.64545 12.1184 8.64545C11.4386 8.61416 10.7801 8.80188 10.111 9.14602Z" fill="var(--fill-0, #9FA3AE)" id="Vector_2"/>
<path d="M26.2652 5.2247C27.4547 5.2247 28.5805 5.53756 29.6213 6.18414C31.6393 7.42515 32.6589 9.2293 32.6589 11.5653C32.6589 12.5248 32.4359 13.4529 31.9792 14.3185C31.3632 15.5178 30.4498 16.4459 29.2071 17.0925C28.2194 17.6244 27.1467 17.8746 25.9784 17.8746C23.9711 17.8746 22.3567 17.1759 21.1247 15.7785C20.137 14.6313 19.6378 13.2965 19.6378 11.7322C19.6378 9.86545 20.3494 8.2803 21.7407 6.96629C22.994 5.80871 24.5127 5.2247 26.2652 5.2247ZM26.2546 8.48887C25.2881 8.48887 24.5127 8.8643 23.9286 9.61516C23.44 10.2617 23.2064 10.9292 23.2064 11.6592C23.2064 12.4622 23.4825 13.1713 24.0348 13.7866C24.5977 14.4123 25.2562 14.7148 26.0209 14.7148C26.6369 14.7148 27.2104 14.5166 27.7415 14.0995C28.6124 13.4425 29.0372 12.5665 29.0372 11.5236C29.0372 10.5433 28.6867 9.74031 27.9751 9.09373C27.5078 8.69744 26.9343 8.48887 26.2546 8.48887Z" fill="var(--fill-0, #9FA3AE)" id="Vector_3"/>
<path d="M41.6229 6.52829L41.6123 9.42745L38.5748 9.39617L38.4898 12.7542C38.4898 13.3069 38.5748 13.7241 38.7553 13.9848C39.0527 14.4019 39.4457 14.6105 39.9236 14.6105C40.2953 14.6105 40.7627 14.4853 41.3468 14.2142L42.2921 16.5711C41.1875 17.3532 40.0829 17.7599 38.989 17.7599C37.8844 17.7599 36.9392 17.4054 36.1639 16.7067C35.3885 16.0079 34.9956 15.1736 35.0168 14.2038L35.0274 9.34402L33.3812 9.28145L33.3918 6.43443H35.0699L35.0805 4.69285C35.0912 3.7647 35.0699 3.09726 34.9956 2.69055L38.681 2.73226C38.681 2.91998 38.6704 3.20155 38.6385 3.6187C38.6279 3.7647 38.6279 4.07756 38.6066 4.55727L38.5642 6.46572L41.6229 6.52829Z" fill="var(--fill-0, #9FA3AE)" id="Vector_4"/>
<path d="M50.8841 6.52829L50.8735 9.42745L47.836 9.39617L47.751 12.7542C47.751 13.3069 47.836 13.7241 48.0165 13.9848C48.3139 14.4019 48.7069 14.6105 49.1848 14.6105C49.5566 14.6105 50.0239 14.4853 50.608 14.2142L51.5533 16.5711C50.4487 17.3532 49.3441 17.7599 48.2502 17.7599C47.1456 17.7599 46.2004 17.4054 45.4251 16.7067C44.6497 16.0079 44.2568 15.1736 44.278 14.2038L44.2886 9.34402L42.6424 9.28145L42.653 6.43443H44.3311L44.3417 4.69285C44.3524 3.7647 44.3311 3.09726 44.2568 2.69055L47.9422 2.73226C47.9422 2.91998 47.9316 3.20155 47.8997 3.6187C47.8891 3.7647 47.8891 4.07756 47.8678 4.55727L47.8254 6.46572L50.8841 6.52829Z" fill="var(--fill-0, #9FA3AE)" id="Vector_5"/>
<path d="M52.8172 6.26777C54.5803 5.64205 56.2053 5.33962 57.7028 5.33962C59.2003 5.33962 60.443 5.67333 61.4413 6.34077C62.2698 6.88306 62.7264 7.69649 62.822 8.78107C62.8327 8.9375 62.8539 9.11479 62.8539 9.29208L62.8858 13.2028C62.8964 14.8923 63.1831 16.2063 63.7248 17.1761L60.3793 18L59.9119 16.7903C59.041 17.5203 58.0002 17.8853 56.7469 17.8853C55.2494 17.8853 54.0493 17.343 53.189 16.2584C52.5092 15.4137 52.1694 14.4855 52.1694 13.5053C52.1694 12.2747 52.6579 11.2735 53.6138 10.4809C54.4953 9.75094 55.568 9.39636 56.8425 9.39636C57.6709 9.39636 58.5631 9.59451 59.5083 10.0012C59.349 8.72893 58.5525 8.08235 57.1187 8.08235C56.0035 8.08235 54.8671 8.32221 53.72 8.7915L52.8172 6.26777ZM57.5754 11.6698C57.0125 11.6698 56.5558 11.868 56.2053 12.2538C55.8654 12.6292 55.6849 13.0151 55.6849 13.4427C55.6849 13.9328 55.8867 14.3708 56.3221 14.7671C56.6726 15.0904 57.0974 15.2677 57.6072 15.2677C58.1807 15.2677 58.6481 15.0695 59.0517 14.642C59.3278 14.3395 59.4765 13.985 59.4765 13.547C59.4765 12.9942 59.2959 12.5354 58.9348 12.1912C58.5312 11.8367 58.0852 11.6698 57.5754 11.6698Z" fill="var(--fill-0, #9FA3AE)" id="Vector_6"/>
<path d="M4.15273 4.40089C4.15273 4.40089 3.97218 4.40089 3.91907 4.40089C0.913388 4.40089 0 2.77402 0 2.77402V0C0 0 1.0196 0.938578 3.84473 0.938578C3.91907 0.938578 4.15273 0.938578 4.15273 0.938578V4.40089Z" fill="var(--fill-0, #9FA3AE)" id="Vector_7"/>
<path d="M64.4576 6.1737C64.4576 6.67428 64.054 7.07057 63.5336 7.07057C63.0132 7.07057 62.6096 6.67428 62.6096 6.1737C62.6096 5.68356 63.0238 5.28727 63.5336 5.28727C64.054 5.28727 64.4576 5.68356 64.4576 6.1737ZM62.8326 6.1737C62.8326 6.56999 63.13 6.88285 63.5336 6.88285C63.9266 6.88285 64.2239 6.56999 64.2239 6.18413C64.2239 5.78784 63.9372 5.47498 63.5336 5.47498C63.13 5.47498 62.8326 5.78784 62.8326 6.1737ZM63.3849 6.64299H63.1725V5.75656C63.2574 5.7357 63.3743 5.72527 63.523 5.72527C63.6929 5.72527 63.7672 5.75656 63.831 5.78784C63.8841 5.82956 63.9159 5.89213 63.9159 5.98599C63.9159 6.07985 63.8416 6.16327 63.7248 6.19456V6.20499C63.8097 6.23628 63.8628 6.29885 63.8947 6.42399C63.9266 6.55956 63.9372 6.61171 63.9584 6.64299H63.7354C63.7035 6.61171 63.6929 6.52828 63.661 6.42399C63.6398 6.33013 63.5867 6.28842 63.4699 6.28842H63.3743V6.64299H63.3849ZM63.3955 6.14242H63.4911C63.6079 6.14242 63.7035 6.1007 63.7035 6.01727C63.7035 5.93384 63.6398 5.8817 63.5123 5.8817C63.4592 5.8817 63.4168 5.89213 63.3955 5.89213V6.14242Z" fill="var(--fill-0, #9FA3AE)" id="Vector_8"/>
</g>
</svg>

<svg xmlns="http://www.w3.org/2000/svg" fill="none" overflow="visible" preserveAspectRatio="none" style="display:block" viewBox="0 0 64.458 18"><g fill="var(--fill-0, #9fa3ae)"><path d="M.064 5.715h4.078L3.823 17.54H.15zM10.281.052l-.085 5.767c1.02-.333 1.954-.49 2.825-.49 1.115 0 2.145.334 3.08.97 1.668 1.158 2.485 2.857 2.485 5.11 0 2.075-.722 3.702-2.145 4.88-1.253 1.043-2.783 1.575-4.599 1.575a9 9 0 0 1-4.301-1.084 8 8 0 0 1-1.147-.762c.16-.604.233-1.345.233-2.231L6.48 2.816c0-.647-.075-1.356-.202-2.138zm-.17 9.094.032 5.058c.573.344 1.19.532 1.837.532 1.041 0 1.87-.397 2.475-1.2.393-.542.605-1.199.605-1.981 0-.97-.308-1.71-.924-2.21-.563-.47-1.232-.7-2.018-.7-.68-.03-1.338.157-2.007.501M26.265 5.225c1.19 0 2.316.313 3.356.96 2.018 1.24 3.038 3.044 3.038 5.38 0 .96-.223 1.888-.68 2.754a6.3 6.3 0 0 1-2.772 2.774c-.988.531-2.06.782-3.229.782-2.007 0-3.621-.7-4.853-2.097-.988-1.147-1.487-2.482-1.487-4.046 0-1.867.711-3.452 2.103-4.766 1.253-1.157 2.772-1.741 4.524-1.741m-.01 3.264q-1.45 0-2.326 1.126c-.489.647-.723 1.314-.723 2.044q0 1.204.829 2.128c.563.625 1.221.928 1.986.928.616 0 1.19-.198 1.72-.615.871-.657 1.296-1.533 1.296-2.576 0-.98-.35-1.784-1.062-2.43-.467-.397-1.04-.605-1.72-.605M41.623 6.528l-.01 2.9-3.038-.032-.085 3.358c0 .553.085.97.265 1.23q.449.627 1.169.627c.371 0 .839-.126 1.423-.397l.945 2.357c-1.105.782-2.21 1.189-3.303 1.189-1.105 0-2.05-.355-2.825-1.053-.776-.7-1.168-1.533-1.147-2.503l.01-4.86-1.646-.063.01-2.847h1.679l.01-1.741c.011-.928-.01-1.596-.084-2.002l3.685.041c0 .188-.01.47-.042.887-.011.146-.011.459-.032.938l-.043 1.909zM50.884 6.528l-.01 2.9-3.038-.032-.085 3.358c0 .553.085.97.266 1.23.297.418.69.627 1.168.627.372 0 .839-.126 1.423-.397l.945 2.357c-1.104.782-2.209 1.189-3.303 1.189-1.104 0-2.05-.355-2.825-1.053-.775-.7-1.168-1.533-1.147-2.503l.01-4.86-1.646-.063.011-2.847h1.678l.01-1.741c.011-.928-.01-1.596-.084-2.002l3.685.041c0 .188-.01.47-.042.887-.01.146-.01.459-.032.938l-.043 1.909zM52.817 6.268c1.763-.626 3.388-.928 4.886-.928 1.497 0 2.74.333 3.738 1 .829.543 1.285 1.356 1.381 2.441.01.156.032.334.032.511l.032 3.91c.01 1.69.297 3.004.839 3.974L60.379 18l-.467-1.21c-.871.73-1.912 1.095-3.165 1.095-1.498 0-2.698-.542-3.558-1.627-.68-.844-1.02-1.772-1.02-2.753 0-1.23.489-2.232 1.445-3.024.881-.73 1.954-1.085 3.229-1.085.828 0 1.72.199 2.665.605-.159-1.272-.956-1.919-2.39-1.919-1.114 0-2.25.24-3.398.71zm4.758 5.402c-.562 0-1.02.198-1.37.584-.34.375-.52.761-.52 1.189 0 .49.202.928.637 1.324.35.323.775.5 1.285.5.574 0 1.041-.197 1.445-.625.276-.303.425-.657.425-1.095 0-.553-.181-1.012-.542-1.356a1.98 1.98 0 0 0-1.36-.521M4.153 4.4h-.234C.913 4.4 0 2.775 0 2.775V0s1.02.939 3.845.939h.308zM64.458 6.174c0 .5-.404.897-.924.897s-.924-.397-.924-.897c0-.49.414-.887.924-.887.52 0 .924.397.924.887m-1.625 0c0 .396.297.709.7.709.394 0 .69-.313.69-.699 0-.396-.286-.709-.69-.709a.69.69 0 0 0-.7.699m.552.469h-.212v-.886q.126-.032.35-.032c.17 0 .244.032.308.063.053.042.085.104.085.198s-.074.177-.191.209v.01c.085.031.138.094.17.219.032.136.042.188.063.219h-.223c-.032-.031-.042-.115-.074-.219-.021-.094-.074-.136-.191-.136h-.096v.355zm.01-.5h.096c.117 0 .212-.042.212-.126s-.063-.135-.19-.135c-.054 0-.096.01-.117.01z"/></g></svg>
